wechatpay.svg

<svg viewBox="0 0 24 24" xmlns="http://www.w3.org/2000/svg"><path d="M8.73318 14.7473C8.6229 14.803 8.50998 14.8295 8.3729 14.8295C8.06634 14.8295 7.81628 14.665 7.67641 14.4182L7.61999 14.3095L5.42326 9.58697C5.39637 9.53129 5.39637 9.47827 5.39637 9.42258C5.39637 9.20236 5.5631 9.03783 5.78627 9.03783C5.86966 9.03783 5.953 9.06438 6.03639 9.12007L8.6229 10.9322C8.81652 11.0408 9.03972 11.1231 9.28969 11.1231C9.42953 11.1231 9.56672 11.0966 9.70656 11.0408L21.8356 5.71616C19.6658 3.19042 16.0789 1.54285 12.0162 1.54285C5.39637 1.54285 0 5.96292 0 11.423C0 14.3865 1.61328 17.0766 4.14346 18.8887C4.33696 19.0267 4.4768 19.2735 4.4768 19.5201C4.4768 19.6024 4.44988 19.6846 4.42038 19.7669C4.22685 20.5071 3.89076 21.7169 3.89076 21.7701C3.86381 21.8522 3.83414 21.961 3.83414 22.0724C3.83414 22.2926 4.0009 22.4571 4.2241 22.4571C4.30743 22.4571 4.39082 22.4306 4.44727 22.3749L7.0607 20.8653C7.25434 20.7565 7.47751 20.6742 7.70071 20.6742C7.81085 20.6742 7.95072 20.7008 8.06099 20.7299C9.28432 21.0855 10.6207 21.2792 11.9839 21.2792C18.6037 21.2792 24 16.8591 24 11.399C24 9.75148 23.4999 8.18877 22.6369 6.81458L8.81652 14.6915L8.73318 14.7472L8.73318 14.7473Z" fill="#09bb07"/></svg>

<svg viewBox="0 0 24 24" xmlns="http://www.w3.org/2000/svg"><path d="M8.733 14.747a.766.766 0 0 1-.36.082.79.79 0 0 1-.697-.41l-.056-.11-2.197-4.722c-.027-.056-.027-.109-.027-.164 0-.22.167-.385.39-.385.084 0 .167.026.25.082l2.587 1.812c.194.109.417.191.667.191.14 0 .277-.026.417-.082l12.129-5.325c-2.17-2.526-5.757-4.173-9.82-4.173C5.396 1.543 0 5.963 0 11.423c0 2.963 1.613 5.654 4.143 7.466a.808.808 0 0 1 .334.631.748.748 0 0 1-.057.247c-.193.74-.53 1.95-.53 2.003a.992.992 0 0 0-.056.302c0 .22.167.385.39.385a.318.318 0 0 0 .223-.082l2.614-1.51a1.34 1.34 0 0 1 .64-.19c.11 0 .25.026.36.055 1.223.355 2.56.55 3.923.55 6.62 0 12.016-4.42 12.016-9.881 0-1.648-.5-3.21-1.363-4.584L8.817 14.69l-.084.056Z" fill="#09bb07"/></svg>
